X: 1
T: Raatikkon
O: Trad Finland
M: 2/4
L: 1/8
K: C
[| "C"EG C2 | EG C2 | "G7"DE FG | "F"A2 "G7"G2 \
|  "C"EG C2 | EG C2 | "G7"DE FB,| "G7"D2 "C"C2 ||
|: "C(Am)"c2 c2 | "G7(Em)"B2 B2 | "F"AA/c/ BA | "C"G3 z \
|  "F"FA GF | "C"EG FE | "G7"DF ED | "C"C3 z :|
